X:1
T:Fanfare from "La peri"
T:Fanfare to La Peri
T:Arranged for Brass Quartet
T:Paul Dukas Arrg. by Mike Huchi
C:Paul Dukas
%%score 1 2 3 4
L:1/8
Q:1/4=75
M:3/4
K:Ab
V:1 bass nm="Trombone" snm="Tbn."
V:2 bass nm="Trombone" snm="Tbn."
V:3 bass nm="Trombone" snm="Tbn."
V:4 bass nm="Tuba" snm="Tba."
V:1
!f! !^!E2- E(3E/E/E/ .E/.D/.E/.F/ | !^!E2- E(3E/E/E/ .E/.D/.E/.F/ | %2
!mf! !>!E!>!D !>!C!>!A, !>!^F,!>!^G, | B,6- | B,2- B, z z2 |!mp! (C4 E2 | =D2-) D z z2 | (C4 E2 | %8
 =D2) z!f! B,,/E,/ E,/B,/B,/C/ | C7/4=D/4 DC ED | C3/2C/4=D/4 C/ z/ C,/F,/ F,/B,/B,/C/ | %11
 (C7/4=D/4) DC (3E/E/E/(3=D/D/D/ | C2- C!mf! z3/4 !^!C/4 !^!E!^!=D | C2- C z3/4 !^!C/4 !^!E!^!=D | %14
!f! CE/=D/ CD EF |[Q:1/4=69] !>!G6 | !>!=D6 | !>!F6- | F2 !fermata!z[Q:1/4=75] z z2 |!mp! A,4 ^F2 | %20
 F2- F z z2 | A4 _G2 | F2- F z3/4!mf! !>!A,/4 (3._C/.C/.C/(3.B,/.B,/.B,/ | %23
 .D/.D/.D/.D/ .E/.D/.D/.D/ .E/._G/.F/.E/ |!<(! D/ z/ z z4!<)! |!f! E6 | B,6 | !fermata!D6 | %28
!mp! (^C4 =A,2) | (3(A,G,A,) =E,2 C,2 | (^C4 =A,2) | C2 =E4 | E4 =B,2 | B,2 =D2 ^F2 | E4 =B,2 | %35
 B,2 =D2 (3(C=B,C) | A,2 (3(DCD) =A,2 |!<(! =D2 D2 (3=B,_D=D!<)! | %38
!ff! !^!E2- E(3E/E/E/ .E/.D/.E/.F/ | !^!E2- E(3E/E/E/ .E/.D/.E/.F/ | %40
 !>!E!>!D !>!C!>!A, !>!^F,!>!^G, | B,4 z[Q:1/4=65] A, | F,^F, G,=A, B,C | D6 | E6 | %45
[Q:1/4=35] (6:4:6!^!D/!^!E/!^!D/!^!E/!^!D/!^!E/ !>!!fermata!A4 |] %46
V:2
!ff! z (3!^!A,/!^!A,/!^!A,/ !^!A,2- A, z | z (3!^!A,/!^!A,/!^!A,/ !^!A,2- A, z | %2
!mf! !>!F,!>!B, !>!A,!>!F, !>!=D,!>!=E, | F,6- | F,2- F, z z2 |!mp! (A,4 F,2 | B,,2-) B,, z z2 | %7
 (A,4 F,2) |!mp! B,,2- B,, z z2 | (A,4 B,2 | =A,)B, A, z z2 | (A,4 B,2 | %12
!mf! =A,/).F,/.F,/.F,/ .G,/.F,/.F,/.G,/ .G,/.B,/.A,/.G,/ | %13
 .F,/.F,/.F,/.F,/ .G,/.F,/.F,/.G,/ .G,/.B,/.=A,/.G,/ |!f! F,C,/E,/ F,=D, _C,_D, | !>!=D,6 | %16
 !>!B,6 | !>!D6- | D2 !fermata!z!f! A,,/D,/ D,/E,/E,/A,/ | A,7/4B,/4 B,A, _CB, | %20
 A,3/2A,/4B,/4 .A,A,,/D,/ D,/E,/E,/A,/ | (A,7/4B,/4) B,A, (3_C/C/C/(3B,/B,/B,/ | %22
 F2- F z3/4!mf!!mf! !>!A,/4 (3._C/.C/.C/(3.B,/.B,/.B,/ | %23
 !>!A,2- A, z3/4 A,/4 (3_C/C/C/(3B,/B,/B,/ |!<(! A,_C/B,/ A,B, CD!<)! |!f! B,6 | ^F,6 | %27
 !fermata!=E,6 |!mp! (=E,4 D,2) | E,2 G,2 =E,2 | (=E,4 D,2) | (3(A,G,A,) =E,4 | =B,4 G,2 | %33
 (3(B,A,B,) ^F,2 =D,2 | =B,4 G,2 | (3(B,A,B,) ^F,2 G,2 | =B,2 A,2 C2 |!<(! =A,2 B,2 =D2!<)! | %38
!ff! z (3!^!A,/!^!A,/!^!A,/ !^!A,2- A, z | z (3!^!A,/!^!A,/!^!A,/ !^!A,2- A, z | %40
 !>!F,!>!B, !>!A,!>!F, !>!=D,!>!=E, | F,4 z E, | A,^F, =D,C, B,G, | =A,6 | C6 | %45
 (6:4:6!^!A,/!^!A,/!^!A,/!^!A,/!^!A,/!^!A,/ !>!!fermata!F,4 |] %46
V:3
!f! !^!F,2- F,(3F,/F,/F,/ .F,/.F,/.F,/.F,/ | !^!F,2- F,(3F,/F,/F,/ .F,/.F,/.F,/.F,/ | %2
!mf! !>!D,!>!F, !>!E,!>!C, !>!=A,,!>!=B,, | z6 | z2 z!f! F,,/B,,/ B,,/C,/C,/F,/ | %5
 (F,7/4G,/4) G,F, A,G, | F,3/2(F,/4G,/4) F,/ z/ F,,/B,,/ B,,/C,/C,/F,/ | %7
 (F,7/4G,/4) G,F, A,/G,/G,/F,/ | F,2- F, z z2 |!mp! (F,4 G,2 | F,)E, F, z z2 | (F,4 G,2 | %12
!mf! F,2-) F, z3/4 !^!=A,/4 !^!B,!^!B, | .F,/.F,/.F,/.F,/ .G,/.F,/.F,/.G,/ .G,/.B,/.A,/.G,/ | %14
!f! C,E,/=D,/ C,D, E,F, | !>!G,6 | !>!=D,6 | !>!D,6- | D,2 !fermata!z z z2 |!mp! E,4 _C2 | %20
 A,2 A, z z2 | E,4 _C2 | A,2- A, z3/4!mf! !>!F,/4 !^!E,2 | !>!F,2- F, z3/4 F,/4 E,_G, | %24
!<(! F,E,/_G,/ F,G, E,D,!<)! |!f! G,6 | D,6 | !fermata!=A,,6 |!mp! (^C,4 C,2) | A,,2 C,2 G,,2 | %30
 (^C,4 D,2) | E,2 G,4 | ^F,4 E,2 | F,2 =A,2 A,2 | ^F,4 E,2 | F,2 =A,2 C2 | =E,2 E,2 F,2 | %37
!<(! ^F,2 =D,2 =F,2!<)! |!ff! !^!F,2- F,(3F,/F,/F,/ .F,/.F,/.F,/.F,/ | %39
 !^!F,2- F,(3F,/F,/F,/ .F,/.F,/.F,/.F,/ | !>!D,!>!F, !>!E,!>!C, !>!=A,,!>!=B,, | =D,4 z E, | %42
 D,=D, =B,,C, G,=E, | D,6 | A,6 | !>!!fermata!D6 |] %46
V:4
!f! !^!A,,4- A,,/.B,,/.A,,/.G,,/ | !^!A,,4- A,,/.B,,/.A,,/.G,,/ | %2
!mf! !>!A,,!>!F,,/!>!G,,/ !>!A,,!>!F,, !>!=D,,!>!=E,, | B,,,6- | B,,,2- B,,, z z2 | %5
!mp! (A,,4 F,,2 | B,,,2-) B,,, z z2 | (A,,4 F,,2 |!mp! B,,,2-) B,,, z z2 | z2 z .C, .C,,.E,, | %10
 !^!F,,2- F,, z z2 | z2 z !^!C, !^!C,,!^!E,, |!mf! !^!F,,2- !^!F,, z3/4 !^!F,,/4 !^!C,,!^!E,, | %13
 !^!F,,2- !^!F,, z3/4 !^!F,,/4 !^!C,,!^!E,, |!f! F,,C,,/E,,/ F,,=D,, _C,,_D,, | !>!G,,6 | !>!B,,6 | %17
 !>!D,,6- | D,,2 !fermata!z z z2 |!mp! z2 z E, A,,_C, | D,2- D, z z2 | z2 z E, A,,_C, | %22
 D,2- D, z3/4!mf! !>!D,/4 !^!A,,!^!A,, | !>!D,2- D, z3/4 D,/4 A,,_C, | %24
!<(! D,A,,/_C,/ D,B,, G,,=A,,!<)! |!f! E,,6 | _G,,6 | !fermata!=A,,,6 |!mp! (=A,,4 A,,2) | %29
 (3(F,,E,,F,,) C,,2 =E,,2 | (=A,,,4 =A,,2) | (3(A,,B,,A,,) C,,4 | =B,,,4 E,,2 | %33
 (3(B,,C,B,,) =D,,2 =A,,,2 | =B,,,4 E,,2 | (3(B,,C,B,,) =D,,2 (3(C,=D,C,) | =E,2 (3(D,E,D,) F,2 | %37
!<(! =D,,2 F,,2 G,,2!<)! |!ff! !^!A,,4- A,,/.B,,/.A,,/.G,,/ | !^!A,,4- A,,/.B,,/.A,,/.G,,/ | %40
 !>!A,,!>!F,,/!>!G,,/ !>!A,,!>!F,, !>!=D,,!>!_F,, | B,,4 z A,, | D,=B,, G,,F,, E,,C,, | =A,,,6 | %44
 A,,6 | !>!!fermata!D,,6 |] %46

